X:267
T: John Anderson My Jo
N: O'Farrell's Pocket Companion v.3 (Sky ed. p.123)
N: "Scotch"
M: C
L: 1/8
R: hornpipe
Q: 320
K: Am
AG| E2A2A2B2| c4 c2dc| B3AG2 ^F2| G6 AG|
E2A2A2B2| c4 c2d2| e3d c2d2| e6 g>f|
e3d c2d2| e3f g2 fe| d3c B2 c2| d6 cd|
e2 c2 d2 cB| c2 BA He2 AG| E2A2A2^G2| A6 :|
